talent/images/icons/Path.svg

<svg width="8" height="13" viewBox="0 0 8 13" fill="none" xmlns="http://www.w3.org/2000/svg">
<path id="Path" d="M0.5582 7.00721L6.34341 12.7923C6.47722 12.9262 6.65583 13 6.84629 13C7.03674 13 7.21536 12.9262 7.34917 12.7923L7.77521 12.3664C8.05244 12.0888 8.05244 11.6377 7.77521 11.3606L2.91722 6.50264L7.7806 1.63927C7.9144 1.50536 7.98828 1.32685 7.98828 1.1365C7.98828 0.945934 7.9144 0.767423 7.7806 0.633407L7.35456 0.207578C7.22065 0.0736675 7.04214 -0.000105858 6.85168 -0.000105858C6.66122 -0.000105858 6.48261 0.0736675 6.3488 0.207578L0.5582 5.99797C0.424078 6.1323 0.350411 6.31166 0.350834 6.50233C0.350411 6.69373 0.424078 6.87298 0.5582 7.00721Z" fill="#848991"/>
</svg>

<svg width="8" height="13" fill="none" xmlns="http://www.w3.org/2000/svg"><path d="M.558 7.007l5.785 5.785a.706.706 0 00.503.208c.19 0 .37-.074.503-.208l.426-.426a.712.712 0 000-1.005L2.917 6.503l4.864-4.864a.706.706 0 00.207-.502.711.711 0 00-.207-.504L7.355.208A.706.706 0 006.852 0c-.19 0-.37.074-.503.208l-5.79 5.79a.707.707 0 00-.208.504c0 .192.073.371.207.505z" fill="#848991"/></svg>
